public/assets/message-gray.svg

<svg width="21" height="16" viewBox="0 0 21 16" fill="none" xmlns="http://www.w3.org/2000/svg">
<path d="M17.1864 0H3.04905C2.2456 0 1.47505 0.316071 0.906923 0.87868C0.338794 1.44129 0.0196228 2.20435 0.0196228 3V13C0.0196228 13.7956 0.338794 14.5587 0.906923 15.1213C1.47505 15.6839 2.2456 16 3.04905 16H17.1864C17.9899 16 18.7604 15.6839 19.3285 15.1213C19.8967 14.5587 20.2158 13.7956 20.2158 13V3C20.2158 2.20435 19.8967 1.44129 19.3285 0.87868C18.7604 0.316071 17.9899 0 17.1864 0V0ZM16.7724 2L10.8347 7.88C10.7408 7.97373 10.6291 8.04812 10.5061 8.09889C10.383 8.14966 10.251 8.1758 10.1177 8.1758C9.98442 8.1758 9.85243 8.14966 9.72938 8.09889C9.60633 8.04812 9.49464 7.97373 9.40076 7.88L3.46308 2H16.7724ZM18.1962 13C18.1962 13.2652 18.0898 13.5196 17.9004 13.7071C17.7111 13.8946 17.4542 14 17.1864 14H3.04905C2.78124 14 2.52439 13.8946 2.33501 13.7071C2.14563 13.5196 2.03924 13.2652 2.03924 13V3.41L7.97693 9.29C8.54495 9.8518 9.31493 10.1674 10.1177 10.1674C10.9205 10.1674 11.6905 9.8518 12.2585 9.29L18.1962 3.41V13Z" fill="#6B7280"/>
</svg>

<svg width="21" height="16" fill="none" xmlns="http://www.w3.org/2000/svg"><path d="M17.186 0H3.05C2.246 0 1.475.316.907.879A2.985 2.985 0 0 0 .02 3v10c0 .796.319 1.559.887 2.121A3.045 3.045 0 0 0 3.049 16h14.137c.804 0 1.574-.316 2.142-.879A2.985 2.985 0 0 0 20.216 13V3c0-.796-.32-1.559-.888-2.121A3.044 3.044 0 0 0 17.186 0Zm-.414 2-5.937 5.88a1.011 1.011 0 0 1-1.106.219 1.01 1.01 0 0 1-.328-.219L3.463 2h13.31Zm1.424 11c0 .265-.106.52-.296.707-.189.188-.446.293-.714.293H3.05c-.268 0-.525-.105-.714-.293A.995.995 0 0 1 2.039 13V3.41l5.938 5.88a3.045 3.045 0 0 0 2.14.877c.803 0 1.573-.315 2.141-.877l5.938-5.88V13Z" fill="#6B7280"/></svg>
